assets/icons/24px/outline/pin-24px.svg

<svg width="24" height="24" viewBox="0 0 24 24" fill="none" xmlns="http://www.w3.org/2000/svg">
<g clip-path="url(#clip0_821_19311)">
<path d="M13.3172 8.04822L13.6886 7.11974L13.3172 8.04822ZM12.0758 7.47127L11.5079 8.29431L12.0758 7.47127ZM11.4607 6.90526L12.2337 6.27089L11.4607 6.90526ZM7.47126 12.0759L8.2943 11.5079L7.47126 12.0759ZM6.90525 11.4607L6.27088 12.2337L6.90525 11.4607ZM10.8643 17.1179L10.8936 16.1183L10.8643 17.1179ZM8.13692 13.539L7.20845 13.9104L8.13692 13.539ZM10.1892 16.9793L10.5561 16.049L10.1892 16.9793ZM17.1179 10.8643L16.1183 10.8936L17.1179 10.8643ZM16.9793 10.1892L17.9096 9.82241L16.9793 10.1892ZM9.23256 3.35272L9.7337 2.48736L9.23256 3.35272ZM3.12457 7.82672L2.14514 7.62495L3.12457 7.82672ZM5.58359 6.31592L6.3159 5.5836L4.90169 4.16939L4.16937 4.90171L5.58359 6.31592ZM14.0571 13.3988L13.3988 14.0571L14.813 15.4713L15.4713 14.813L14.0571 13.3988ZM9.0654 13.1676L8.97668 12.9458L7.11973 13.6886L7.20845 13.9104L9.0654 13.1676ZM12.9458 8.97669L13.1676 9.06541L13.9104 7.20846L13.6886 7.11974L12.9458 8.97669ZM13.6886 7.11974C13.0043 6.84602 12.8072 6.76096 12.6438 6.64823L11.5079 8.29431C11.8988 8.56409 12.3445 8.73616 12.9458 8.97669L13.6886 7.11974ZM9.88823 6.16331C10.1779 6.74259 10.3864 7.17246 10.6877 7.53963L12.2337 6.27089C12.1078 6.11746 12.0067 5.92809 11.6771 5.26888L9.88823 6.16331ZM12.6438 6.64823C12.4902 6.5422 12.3522 6.41519 12.2337 6.27089L10.6877 7.53963C10.9245 7.82823 11.2006 8.08226 11.5079 8.29431L12.6438 6.64823ZM8.97668 12.9458C8.73615 12.3445 8.56408 11.8988 8.2943 11.5079L6.64822 12.6438C6.76095 12.8072 6.84601 13.0043 7.11973 13.6886L8.97668 12.9458ZM5.26887 11.6771C5.92808 12.0067 6.11745 12.1078 6.27088 12.2337L7.53962 10.6877C7.17245 10.3864 6.74258 10.1779 6.16329 9.88824L5.26887 11.6771ZM8.2943 11.5079C8.08225 11.2006 7.82822 10.9245 7.53962 10.6877L6.27088 12.2337C6.41518 12.3522 6.54219 12.4902 6.64822 12.6438L8.2943 11.5079ZM13.3988 14.0571C12.5868 14.8691 12.0429 15.4104 11.5988 15.7567C11.1616 16.0978 10.978 16.1208 10.8936 16.1183L10.835 18.1175C11.6132 18.1403 12.2574 17.7794 12.8288 17.3338C13.3934 16.8934 14.039 16.2453 14.813 15.4713L13.3988 14.0571ZM7.20845 13.9104C7.61497 14.9267 7.95302 15.7768 8.29851 16.4039C8.64815 17.0386 9.09815 17.624 9.82239 17.9096L10.5561 16.049C10.4775 16.0181 10.3179 15.9246 10.0503 15.4389C9.77858 14.9457 9.49188 14.2338 9.0654 13.1676L7.20845 13.9104ZM10.8936 16.1183C10.7779 16.1149 10.6637 16.0915 10.5561 16.049L9.82239 17.9096C10.1454 18.037 10.488 18.1073 10.835 18.1175L10.8936 16.1183ZM15.4713 14.813C16.2453 14.039 16.8934 13.3934 17.3338 12.8288C17.7794 12.2574 18.1403 11.6132 18.1175 10.835L16.1183 10.8936C16.1208 10.978 16.0978 11.1616 15.7567 11.5988C15.4104 12.0429 14.8691 12.5868 14.0571 13.3988L15.4713 14.813ZM13.1676 9.06541C14.2338 9.49189 14.9457 9.77859 15.4389 10.0503C15.9246 10.3179 16.0181 10.4775 16.049 10.5561L17.9096 9.82241C17.624 9.09816 17.0386 8.64816 16.4039 8.29852C15.7767 7.95303 14.9267 7.61497 13.9104 7.20846L13.1676 9.06541ZM18.1175 10.835C18.1073 10.488 18.037 10.1454 17.9096 9.82241L16.049 10.5561C16.0915 10.6637 16.1149 10.7779 16.1183 10.8936L18.1175 10.835ZM6.3159 5.5836C6.87323 5.02627 7.24321 4.65771 7.54465 4.40714C7.8419 4.16005 7.9726 4.11553 8.02849 4.10402L7.62494 2.14515C7.09391 2.25455 6.65931 2.54233 6.26617 2.86913C5.8772 3.19245 5.43169 3.63938 4.90169 4.16939L6.3159 5.5836ZM11.6771 5.26888C11.3419 4.59847 11.0606 4.03359 10.7938 3.60386C10.5242 3.16951 10.2029 2.75907 9.7337 2.48736L8.73141 4.21809C8.7808 4.24669 8.89071 4.33025 9.09457 4.65866C9.3013 4.99169 9.53575 5.45834 9.88823 6.16331L11.6771 5.26888ZM8.02849 4.10402C8.26886 4.0545 8.51904 4.0951 8.73141 4.21809L9.7337 2.48736C9.09659 2.1184 8.34604 1.9966 7.62494 2.14515L8.02849 4.10402ZM4.16937 4.90171C3.63937 5.43171 3.19244 5.87722 2.86911 6.26618C2.54232 6.65932 2.25454 7.09392 2.14514 7.62495L4.10401 8.0285C4.11552 7.97261 4.16004 7.84191 4.40713 7.54466C4.6577 7.24323 5.02626 6.87324 5.58359 6.31592L4.16937 4.90171ZM6.16329 9.88824C5.45833 9.53576 4.99168 9.30131 4.65865 9.09459C4.33024 8.89073 4.24667 8.78081 4.21807 8.73143L2.48735 9.73372C2.75906 10.2029 3.1695 10.5242 3.60385 10.7938C4.03358 11.0606 4.59846 11.3419 5.26887 11.6771L6.16329 9.88824ZM2.14514 7.62495C1.99658 8.34605 2.11838 9.0966 2.48735 9.73372L4.21807 8.73143C4.09509 8.51905 4.05449 8.26887 4.10401 8.0285L2.14514 7.62495Z" fill="white"/>
<path d="M20 20L15.0503 15.0503" stroke="white" stroke-width="2" stroke-linecap="round"/>
</g>
<defs>
<clipPath id="clip0_821_19311">
<rect width="24" height="24" fill="white"/>
</clipPath>
</defs>
</svg>

<svg width="24" height="24" fill="none" xmlns="http://www.w3.org/2000/svg"><g clip-path="url(#clip0_821_19311)"><path d="M13.317 8.048l.372-.928-.372.928zm-1.241-.577l-.568.823.568-.823zm-.615-.566l.773-.634-.773.634zm-3.99 5.17l.823-.567-.823.568zm-.566-.614l-.634.773.634-.773zm3.96 5.657l.029-1-.03 1zm-2.728-3.579l-.929.371.929-.371zm2.052 3.44l.367-.93-.367.93zm6.929-6.115l-1 .03 1-.03zm-.139-.675l.93-.367-.93.367zM9.233 3.353l.5-.866-.5.866zM3.125 7.827l-.98-.202.98.202zm2.459-1.511l.732-.732-1.414-1.415-.733.733 1.415 1.414zm8.473 7.083l-.658.658 1.414 1.414.658-.658-1.414-1.414zm-4.992-.231l-.088-.222-1.857.743.088.221 1.857-.742zm3.88-4.191l.223.088.742-1.857-.221-.088-.743 1.857zm.744-1.857c-.685-.274-.882-.359-1.045-.472l-1.136 1.646c.39.27.837.442 1.438.683l.743-1.857zm-3.8-.957c.289.58.497 1.01.799 1.377l1.546-1.27c-.126-.153-.227-.342-.557-1.001l-1.789.894zm2.755.485a2.003 2.003 0 0 1-.41-.377L10.688 7.54c.236.288.513.542.82.754l1.136-1.646zm-3.667 6.298c-.24-.601-.413-1.047-.683-1.438l-1.646 1.136c.113.163.198.36.472 1.045l1.857-.743zm-3.708-1.269c.66.33.848.43 1.002.557l1.269-1.546c-.368-.302-.797-.51-1.377-.8l-.894 1.79zm3.025-.17a3.999 3.999 0 0 0-.754-.82l-1.27 1.547c.145.118.272.256.378.41l1.646-1.136zm5.105 2.55c-.812.812-1.356 1.353-1.8 1.7-.437.34-.621.364-.705.361l-.059 2c.778.022 1.422-.339 1.994-.784.564-.44 1.21-1.089 1.984-1.863l-1.414-1.414zm-6.19-.147c.406 1.017.744 1.867 1.09 2.494.35.635.8 1.22 1.523 1.506l.734-1.861c-.079-.03-.238-.124-.506-.61-.271-.493-.558-1.205-.985-2.271l-1.857.742zm3.685 2.208a.998.998 0 0 1-.338-.069l-.734 1.86a3 3 0 0 0 1.013.209l.059-2zm4.577-1.305c.774-.774 1.422-1.42 1.863-1.984.445-.572.806-1.216.784-1.994l-2 .059c.003.084-.02.268-.361.705-.347.444-.888.988-1.7 1.8l1.414 1.414zm-2.303-5.748c1.066.427 1.778.714 2.27.985.487.268.58.427.611.506l1.86-.734c-.285-.724-.87-1.174-1.505-1.523-.627-.346-1.477-.684-2.494-1.09l-.742 1.856zm4.95 1.77a3 3 0 0 0-.208-1.013l-1.861.734a.998.998 0 0 1 .07.338l1.998-.059zM6.316 5.584c.557-.558.927-.926 1.229-1.177.297-.247.428-.291.483-.303l-.403-1.959c-.531.11-.966.397-1.359.724-.389.323-.834.77-1.364 1.3l1.414 1.415zm5.361-.315c-.335-.67-.616-1.235-.883-1.665-.27-.434-.591-.845-1.06-1.117L8.73 4.218c.05.029.16.112.364.44.206.334.44.8.793 1.505l1.79-.894zM8.028 4.104a1 1 0 0 1 .703.114l1.003-1.73a3 3 0 0 0-2.11-.343l.404 1.959zm-3.859.798c-.53.53-.977.975-1.3 1.364-.327.393-.614.828-.724 1.359l1.959.403c.012-.055.056-.186.303-.483.25-.302.62-.672 1.177-1.23L4.169 4.903zm1.994 4.986c-.705-.352-1.171-.587-1.504-.793-.329-.204-.412-.314-.44-.364L2.486 9.734c.272.469.683.79 1.117 1.06.43.267.994.548 1.665.883l.894-1.789zM2.145 7.625a3 3 0 0 0 .342 2.109L4.218 8.73a1 1 0 0 1-.114-.703l-1.959-.403z" fill="#fff"/><path d="M20 20l-4.95-4.95" stroke="#fff" stroke-width="2" stroke-linecap="round"/></g><defs><clipPath id="clip0_821_19311"><path fill="#fff" d="M0 0H24V24H0z"/></clipPath></defs></svg>
